flaticon/files-and-folders/files-10.svg

<svg xmlns="http://www.w3.org/2000/svg" width="32" height="32" viewBox="0 0 24 24">
    <path d="M 20.792969 5.117188 C 20.769531 5 20.707031 4.90625 20.609375 4.851562 L 15.949219 0.191406 C 15.894531 0.09375 15.800781 0.0273438 15.683594 0.0078125 C 15.648438 0 15.613281 0 15.578125 0 L 4.398438 0 C 3.71875 0 3.199219 0.523438 3.199219 1.203125 L 3.199219 22.800781 C 3.199219 23.480469 3.71875 24 4.398438 24 L 19.597656 24 C 20.277344 24 20.796875 23.480469 20.796875 22.800781 L 20.796875 5.222656 C 20.800781 5.1875 20.800781 5.152344 20.792969 5.117188 Z M 19.4375 4.800781 L 16.398438 4.800781 C 16.160156 4.800781 16 4.640625 16 4.402344 L 16 1.363281 Z M 20 22.800781 C 20 23.039062 19.839844 23.199219 19.597656 23.199219 L 4.398438 23.199219 C 4.160156 23.199219 4 23.039062 4 22.800781 L 4 1.203125 C 4 1 4.160156 0.800781 4.398438 0.800781 L 15.199219 0.800781 L 15.199219 4.402344 C 15.199219 5.082031 15.71875 5.601562 16.398438 5.601562 L 20 5.601562 Z M 20 22.800781"/>
    <path d="M16 9.601562L16 10.402344 13.546875 10.402344C13.371094 9.710938 12.742188 9.199219 12 9.199219 11.257812 9.199219 10.628906 9.714844 10.449219 10.402344L8 10.402344 8 9.601562C8 9.359375 7.839844 9.199219 7.597656 9.199219L5.199219 9.199219C4.960938 9.199219 4.800781 9.359375 4.800781 9.601562L4.800781 12C4.800781 12.242188 4.960938 12.402344 5.199219 12.402344L7.597656 12.402344C7.839844 12.402344 8 12.242188 8 12L8 11.199219 10.449219 11.199219C10.523438 11.480469 10.671875 11.734375 10.871094 11.933594L7.613281 17.65625C7.480469 17.621094 7.34375 17.601562 7.199219 17.601562 6.320312 17.601562 5.597656 18.320312 5.597656 19.199219 5.597656 20.082031 6.320312 20.800781 7.199219 20.800781 8.078125 20.800781 8.800781 20.082031 8.800781 19.199219 8.800781 19.054688 8.78125 18.914062 8.742188 18.78125L10.871094 17.53125C11.160156 17.820312 11.558594 18 12 18 12.4375 18 12.839844 17.820312 13.128906 17.53125L15.253906 18.78125C15.21875 18.914062 15.199219 19.054688 15.199219 19.199219 15.199219 20.082031 15.917969 20.800781 16.796875 20.800781 17.679688 20.800781 18.398438 20.082031 18.398438 19.199219 18.398438 18.320312 17.679688 17.601562 16.796875 17.601562 16.65625 17.601562 16.515625 17.621094 16.386719 17.65625L13.125 11.933594C13.328125 11.734375 13.476562 11.480469 13.546875 11.199219L16 11.199219 16 12C16 12.242188 16.160156 12.402344 16.398438 12.402344L18.796875 12.402344C19.039062 12.402344 19.199219 12.242188 19.199219 12L19.199219 9.601562C19.199219 9.359375 19.039062 9.199219 18.796875 9.199219L16.398438 9.199219C16.160156 9.199219 16 9.359375 16 9.601562zM7.199219 11.601562L5.597656 11.601562 5.597656 10 7.199219 10zM12 10C12.4375 10 12.800781 10.359375 12.800781 10.800781 12.800781 11.066406 12.667969 11.304688 12.464844 11.449219 12.441406 11.457031 12.421875 11.46875 12.398438 11.480469 12.261719 11.558594 12.125 11.597656 11.992188 11.601562 11.925781 11.601562 11.859375 11.589844 11.796875 11.574219 11.726562 11.554688 11.664062 11.523438 11.597656 11.480469 11.585938 11.476562 11.570312 11.472656 11.558594 11.464844 11.34375 11.324219 11.199219 11.078125 11.199219 10.800781 11.199219 10.359375 11.558594 10 12 10zM7.199219 20C6.757812 20 6.398438 19.640625 6.398438 19.199219 6.398438 18.761719 6.757812 18.398438 7.199219 18.398438 7.324219 18.398438 7.4375 18.429688 7.542969 18.480469 7.5625 18.496094 7.578125 18.507812 7.597656 18.519531 7.628906 18.53125 7.652344 18.542969 7.675781 18.558594 7.679688 18.5625 7.6875 18.566406 7.691406 18.574219 7.765625 18.628906 7.820312 18.714844 7.878906 18.800781 7.890625 18.820312 7.90625 18.839844 7.921875 18.859375 7.972656 18.964844 8 19.078125 8 19.199219 8 19.640625 7.640625 20 7.199219 20zM12 17.199219C11.730469 17.199219 11.488281 17.0625 11.34375 16.855469 11.335938 16.835938 11.328125 16.816406 11.320312 16.800781 11.25 16.699219 11.210938 16.566406 11.203125 16.457031 11.199219 16.4375 11.199219 16.417969 11.199219 16.402344 11.199219 16.152344 11.3125 15.929688 11.492188 15.785156 11.53125 15.75 11.574219 15.722656 11.617188 15.699219 11.664062 15.671875 11.710938 15.652344 11.761719 15.636719 11.835938 15.613281 11.917969 15.601562 12 15.601562 12.4375 15.601562 12.800781 15.960938 12.800781 16.402344 12.800781 16.417969 12.796875 16.4375 12.796875 16.457031 12.785156 16.566406 12.746094 16.699219 12.679688 16.800781 12.671875 16.816406 12.667969 16.828125 12.664062 16.84375 12.519531 17.058594 12.277344 17.199219 12 17.199219zM17.597656 19.199219C17.597656 19.640625 17.238281 20 16.796875 20 16.359375 20 16 19.640625 16 19.199219 16 19.074219 16.027344 18.957031 16.082031 18.847656 16.09375 18.832031 16.105469 18.816406 16.117188 18.800781 16.128906 18.773438 16.140625 18.746094 16.160156 18.722656 16.164062 18.71875 16.167969 18.710938 16.171875 18.707031 16.226562 18.636719 16.3125 18.578125 16.398438 18.519531 16.421875 18.507812 16.441406 18.492188 16.457031 18.476562 16.5625 18.429688 16.675781 18.398438 16.796875 18.398438 17.238281 18.398438 17.597656 18.761719 17.597656 19.199219zM13.535156 16.847656C13.574219 16.707031 13.597656 16.554688 13.597656 16.402344 13.597656 15.519531 12.878906 14.800781 12 14.800781 11.121094 14.800781 10.398438 15.519531 10.398438 16.402344 10.398438 16.554688 10.421875 16.707031 10.464844 16.847656L8.332031 18.074219C8.332031 18.070312 8.328125 18.070312 8.328125 18.066406L11.519531 12.359375C11.800781 12.441406 12.078125 12.441406 12.359375 12.359375L15.640625 18.082031zM16.800781 10L18.398438 10 18.398438 11.601562 16.800781 11.601562zM6 5.601562L11.199219 5.601562C11.4375 5.601562 11.597656 5.441406 11.597656 5.203125 11.597656 4.960938 11.4375 4.800781 11.199219 4.800781L6 4.800781C5.757812 4.800781 5.601562 4.960938 5.601562 5.203125 5.601562 5.441406 5.757812 5.601562 6 5.601562zM6 7.199219L9.199219 7.199219C9.4375 7.199219 9.597656 7.042969 9.597656 6.800781 9.597656 6.5625 9.4375 6.402344 9.199219 6.402344L6 6.402344C5.757812 6.402344 5.601562 6.5625 5.601562 6.800781 5.601562 7.042969 5.757812 7.199219 6 7.199219zM11.199219 6.402344L10.800781 6.402344C10.558594 6.402344 10.398438 6.5625 10.398438 6.800781 10.398438 7.042969 10.558594 7.199219 10.800781 7.199219L11.199219 7.199219C11.4375 7.199219 11.597656 7.042969 11.597656 6.800781 11.597656 6.5625 11.4375 6.402344 11.199219 6.402344zM11.199219 6.402344"/>
</svg>

<svg xmlns="http://www.w3.org/2000/svg" width="32" height="32" viewBox="0 0 24 24">
    <path d="M20.793 5.117a.378.378 0 0 0-.184-.265L15.95.192a.367.367 0 0 0-.265-.184C15.648 0 15.614 0 15.578 0H4.398C3.718 0 3.2.523 3.2 1.203v21.598c0 .68.52 1.199 1.2 1.199h15.199c.68 0 1.199-.52 1.199-1.2V5.224a.32.32 0 0 0-.004-.106zm-1.355-.316h-3.04c-.238 0-.398-.16-.398-.399V1.363zm.562 18c0 .238-.16.398-.402.398h-15.2c-.238 0-.398-.16-.398-.398V1.203a.4.4 0 0 1 .398-.402H15.2v3.601c0 .68.52 1.2 1.2 1.2H20zm0 0"/>
    <path d="M16 9.602v.8h-2.453A1.6 1.6 0 0 0 12 9.2c-.742 0-1.371.516-1.55 1.203H8v-.8c0-.243-.16-.403-.402-.403H5.199c-.238 0-.398.16-.398.403V12c0 .242.16.402.398.402h2.399c.242 0 .402-.16.402-.402v-.8h2.45c.073.28.222.534.421.734l-3.258 5.722A1.605 1.605 0 0 0 5.597 19.2c0 .883.723 1.602 1.602 1.602.88 0 1.602-.719 1.602-1.602 0-.144-.02-.285-.059-.418l2.13-1.25a1.591 1.591 0 0 0 2.257 0l2.125 1.25a1.603 1.603 0 0 0 1.543 2.02c.883 0 1.601-.719 1.601-1.602a1.603 1.603 0 0 0-2.011-1.543l-3.262-5.722c.203-.2.352-.454.422-.735H16V12c0 .242.16.402.398.402h2.399c.242 0 .402-.16.402-.402V9.602c0-.243-.16-.403-.402-.403h-2.399c-.238 0-.398.16-.398.403zm-8.8 2H5.597V10h1.601zM12 10a.797.797 0 1 1 .465 1.45c-.024.007-.043.019-.067.03a.867.867 0 0 1-.406.122.71.71 0 0 1-.395-.121c-.011-.004-.027-.008-.038-.016a.796.796 0 0 1-.36-.664c0-.442.36-.801.801-.801zM7.2 20c-.442 0-.802-.36-.802-.8 0-.438.36-.802.801-.802.125 0 .239.032.344.082.02.016.035.028.055.04a.365.365 0 0 1 .078.039c.004.003.011.007.015.015.075.055.13.14.188.227.012.02.027.039.043.058.05.106.078.22.078.34 0 .442-.36.801-.8.801zm4.8-2.8a.803.803 0 0 1-.656-.345.765.765 0 0 0-.024-.054.724.724 0 0 1-.117-.344c-.004-.02-.004-.039-.004-.055 0-.25.114-.472.293-.617a.648.648 0 0 1 .125-.086.8.8 0 0 1 .383-.098c.438 0 .8.36.8.801 0 .016-.003.035-.003.055a.82.82 0 0 1-.117.344.19.19 0 0 0-.016.043.797.797 0 0 1-.664.355zm5.598 2c0 .44-.36.8-.801.8a.801.801 0 0 1-.715-1.152l.035-.047a.305.305 0 0 1 .043-.078l.012-.016c.055-.07.14-.129.226-.187a.228.228 0 0 0 .059-.043.833.833 0 0 1 .34-.079c.441 0 .8.364.8.801zm-4.063-2.352A1.603 1.603 0 0 0 12 14.8c-.879 0-1.602.719-1.602 1.601 0 .153.024.305.067.446l-2.133 1.226c0-.004-.004-.004-.004-.008l3.192-5.707c.28.082.558.082.84 0l3.28 5.723zM16.801 10h1.597v1.602h-1.597zm0 0M6 5.602h5.2c.238 0 .398-.16.398-.399 0-.242-.16-.402-.399-.402H6c-.242 0-.398.16-.398.402 0 .238.156.399.398.399zm0 0M6 7.2h3.2c.238 0 .398-.157.398-.4 0-.237-.16-.398-.399-.398H6c-.242 0-.398.16-.398.399 0 .242.156.398.398.398zm0 0M11.2 6.402h-.4c-.241 0-.402.16-.402.399 0 .242.16.398.403.398h.398c.239 0 .399-.156.399-.398 0-.239-.16-.399-.399-.399zm0 0"/>
</svg>
